X: 23909
T: Loch Lomond
R: reel
M: 4/4
K: Gmajor
d2|G2 GA B2 BA|G2 Ge d4|G2 GA G2 Bd|e4 d3 d|
e2 ed B2 Bd|cBAG A2 BA|G2 Bd e2 dB|A4 G2||

